X:1002
T:The Susanbirds of Wendell
C:Bill Tomczak, 1994
N:For the dance "Flights of Fancy" by Susan Kevra, 1995.
N:For the dance "The Susanbirds Wend Home" by Trevor Monson, 2009.
L:1/8
M:6/8
R:Jig
S:Colin Hume's website,  colinhume.com  - chords can also be printed below the stave.
Q:3/8=112
K:G
P:A
|: "G"d3 "/"B3 | "C"A2G "/"ABG | "G"DED "/"GAB | "G"dBG "D"A3 |\
"G"d3 "/"B3 | "C"AGB "/"AGE | "G"DED "/"GAd | "C"BGA "G"G3 :|
P:B
|: "G"DED "/"GAB | "G"dBG "C"ABG | "G"DED "/"GAB | "G"dBG "D"A3 |\
"G"DED "/"GAB | "G"dBG "C"ABG | "G"d3 "/"B2G | "D"ABA "G"G3 :|

